src/asset/24px/book.svg

<svg width="24" height="24" viewBox="0 0 24 24" fill="none" xmlns="http://www.w3.org/2000/svg">
<path fill-rule="evenodd" clip-rule="evenodd" d="M8 4.99973C7.10953 4.99973 6.18079 5.23663 5.46939 5.48119C5.21594 5.56833 5 5.83914 5 6.23579V18.5291C5.81656 18.262 6.89798 17.9997 8 17.9997C9.11981 17.9997 10.2054 18.2691 11 18.5292V5.65461C10.8383 5.59061 10.6471 5.51953 10.4338 5.4484C9.73368 5.21504 8.84875 4.99972 8 4.99973ZM13 5.65461V18.5292C13.7946 18.2691 14.8802 17.9997 16 17.9997C17.102 17.9997 18.1834 18.262 19 18.5291V6.23579C19 5.83913 18.7841 5.56832 18.5306 5.48119C17.8192 5.23662 16.8905 4.99972 16 4.99973C15.1513 4.99973 14.2663 5.21505 13.5662 5.44841C13.3529 5.51953 13.1617 5.59061 13 5.65461ZM10.5 20.4707C10.4782 20.4633 10.4561 20.4558 10.4338 20.4484C9.73368 20.215 8.84875 19.9997 8 19.9997C6.54692 19.9997 5.03222 20.6256 4.56105 20.8406C3.84124 21.1692 3 20.6513 3 19.8379V6.23579C3 5.11736 3.63984 3.99527 4.81918 3.58984C5.62817 3.31172 6.79495 2.99973 8 2.99973C9.15125 2.99972 10.2663 3.2844 11.0662 3.55104C11.4446 3.67716 11.7645 3.80337 12 3.90297C12.2355 3.80337 12.5554 3.67716 12.9338 3.55104C13.7337 3.2844 14.8487 2.99973 16 2.99973C17.205 2.99972 18.3718 3.31172 19.1808 3.58984C20.3602 3.99527 21 5.11736 21 6.23579V19.8379C21 20.6513 20.1588 21.1692 19.439 20.8406C18.9678 20.6256 17.4531 19.9997 16 19.9997C15.1513 19.9997 14.2663 20.215 13.5662 20.4484C13.5439 20.4558 13.5218 20.4633 13.5 20.4707V20.4997C13.5 21.052 13.0523 21 12.5 21H11.5C10.9477 21 10.5 21.052 10.5 20.4997V20.4707Z" fill="#808080"/>
</svg>

<svg width="24" height="24" fill="none" xmlns="http://www.w3.org/2000/svg"><path fill-rule="evenodd" clip-rule="evenodd" d="M8 5c-.89 0-1.82.237-2.53.481-.254.087-.47.358-.47.755v12.293c.817-.267 1.898-.53 3-.53 1.12 0 2.205.27 3 .53V5.655a11.002 11.002 0 00-.566-.207C9.734 5.215 8.849 5 8 5zm5 .655v12.874c.795-.26 1.88-.53 3-.53 1.102 0 2.183.263 3 .53V6.236c0-.397-.216-.668-.47-.755C17.82 5.237 16.89 5 16 5c-.849 0-1.734.215-2.434.448-.213.072-.404.143-.566.207zM10.5 20.47a10.19 10.19 0 00-.066-.023C9.734 20.215 8.849 20 8 20c-1.453 0-2.968.626-3.439.84A1.103 1.103 0 013 19.839V6.236c0-1.119.64-2.24 1.82-2.646C5.627 3.312 6.794 3 8 3c1.151 0 2.266.284 3.066.551.379.126.698.252.934.352.236-.1.555-.226.934-.352C13.734 3.284 14.849 3 16 3c1.205 0 2.372.312 3.18.59C20.36 3.995 21 5.117 21 6.236v13.602c0 .813-.841 1.331-1.561 1.003C18.968 20.626 17.453 20 16 20c-.849 0-1.734.215-2.434.448a10.19 10.19 0 00-.066.023v.029c0 .552-.448.5-1 .5h-1c-.552 0-1 .052-1-.5v-.03z" fill="gray"/></svg>
